img/cab__exit.svg

<svg width="22" height="22" viewBox="0 0 22 22" fill="none" xmlns="http://www.w3.org/2000/svg">
<path d="M19.707 22H9.62374C8.36057 22 7.33207 20.9715 7.33207 19.7083V15.125C7.33207 14.872 7.53741 14.6667 7.79041 14.6667C8.04341 14.6667 8.24874 14.872 8.24874 15.125V19.7083C8.24874 20.4664 8.86565 21.0833 9.62374 21.0833H19.707C20.4651 21.0833 21.082 20.4664 21.082 19.7083V2.29167C21.082 1.53358 20.4651 0.916667 19.707 0.916667H9.62374C8.86565 0.916667 8.24874 1.53358 8.24874 2.29167V6.875C8.24874 7.128 8.04341 7.33333 7.79041 7.33333C7.53741 7.33333 7.33207 7.128 7.33207 6.875V2.29167C7.33207 1.0285 8.36057 0 9.62374 0H19.707C20.9702 0 21.9987 1.0285 21.9987 2.29167V19.7083C21.9987 20.9715 20.9702 22 19.707 22Z" fill="black"/>
<path d="M14.2083 11.4586H0.458333C0.205333 11.4586 0 11.2533 0 11.0003C0 10.7473 0.205333 10.542 0.458333 10.542H14.2083C14.4613 10.542 14.6667 10.7473 14.6667 11.0003C14.6667 11.2533 14.4613 11.4586 14.2083 11.4586Z" fill="black"/>
<path d="M10.5445 15.1253C10.4272 15.1253 10.3098 15.0804 10.22 14.9915C10.0413 14.8127 10.0413 14.5221 10.22 14.3434L13.5631 11.0003L10.2209 7.65813C10.0422 7.47938 10.0422 7.1888 10.2209 7.01005C10.3997 6.8313 10.6903 6.8313 10.869 7.01005L14.5357 10.6767C14.7144 10.8555 14.7144 11.146 14.5357 11.3248L10.869 14.9915C10.7792 15.0804 10.6618 15.1253 10.5445 15.1253Z" fill="black"/>
</svg>

<svg width="22" height="22" fill="none" xmlns="http://www.w3.org/2000/svg"><path d="M19.707 22H9.624a2.295 2.295 0 01-2.292-2.292v-4.583a.458.458 0 01.917 0v4.583c0 .758.617 1.375 1.375 1.375h10.083c.758 0 1.375-.617 1.375-1.375V2.292c0-.758-.617-1.375-1.375-1.375H9.624c-.758 0-1.375.617-1.375 1.375v4.583a.458.458 0 01-.917 0V2.292A2.295 2.295 0 019.624 0h10.083a2.295 2.295 0 012.292 2.292v17.416A2.295 2.295 0 0119.707 22z" fill="#000"/><path d="M14.208 11.459H.458a.458.458 0 010-.917h13.75a.459.459 0 010 .917z" fill="#000"/><path d="M10.544 15.125a.459.459 0 01-.324-.782L13.563 11l-3.342-3.342a.459.459 0 01.648-.648l3.667 3.667a.459.459 0 010 .648l-3.667 3.667a.46.46 0 01-.325.133z" fill="#000"/></svg>
